brandFactory_export/2.Regular/Candado abierto_2Regular.svg

<?xml version="1.0" encoding="UTF-8"?>
<svg width="24px" height="24px" viewBox="0 0 24 24" version="1.1" xmlns="http://www.w3.org/2000/svg" xmlns:xlink="http://www.w3.org/1999/xlink">
    <title>2.Regular/Candado abierto_2Regular</title>
    <g id="Symbols" stroke="none" stroke-width="1" fill="none" fill-rule="evenodd">
        <g id="2.Regular/Candado-abierto_2Regular" fill="#5CB615" fill-rule="nonzero">
            <path d="M19.3159664,10.8537815 C19.3193277,10.789916 19.3663866,9.98655462 18.8588235,9.43865546 C18.4991597,9.0487395 17.9176471,8.85378151 17.1344538,8.85378151 C14.092437,8.85378151 7.01680672,8.86386555 6.65042017,8.86386555 L6.61680672,8.86386555 C6.6,8.86386555 6.57983193,8.86386555 6.56302521,8.8605042 C6.55966387,8.8605042 6.52268908,8.85714286 6.46554622,8.85714286 C6.20336134,8.85714286 5.47058824,8.90084034 4.97983193,9.36134454 C4.63697479,9.68403361 4.46218487,10.1848739 4.46218487,10.8470588 L4.46218487,20.1882353 C4.45882353,20.2420168 4.42184874,21.0521008 4.93613445,21.6033613 C5.29243697,21.9865546 5.8605042,22.1815126 6.62689076,22.1815126 L17.1378151,22.1747899 C17.194958,22.1747899 18.1932773,22.2319328 18.805042,21.6470588 C19.1512605,21.3142857 19.3193277,20.8302521 19.3193277,20.1680672 C19.312605,17.0957983 19.3159664,10.8537815 19.3159664,10.8537815 L19.3159664,10.8537815 Z M20.7411765,10.9142857 C20.7445378,10.9142857 20.7411765,17.1092437 20.7445378,20.1647059 C20.7445378,21.2403361 20.4184874,22.0941176 19.7697479,22.7058824 C18.697479,23.7210084 17.1478992,23.6201681 17.0840336,23.6168067 L6.62352941,23.6235294 C5.44033613,23.6235294 4.51596639,23.2705882 3.87731092,22.5747899 C2.94285714,21.5563025 3.0302521,20.1882353 3.03361345,20.1310924 L3.0302521,10.8436975 C3.0302521,9.75798319 3.36302521,8.89747899 4.01512605,8.28907563 C4.62352941,7.7210084 5.38319328,7.51596639 5.93445378,7.44537815 L5.93445378,6.01680672 C5.93445378,1.62016807 8.86218487,0.0268907563 11.6016807,0 C11.7764706,0 11.9613445,0.00336134454 12.1226891,0.00336134454 C14.3277311,0.0571428571 16.9394958,1.2 17.6453782,4.2487395 C17.7361345,4.63865546 17.497479,5.02857143 17.1142857,5.11932773 C16.7344538,5.21008403 16.3478992,4.97142857 16.2537815,4.58151261 C15.5983193,1.7512605 12.8991597,1.46890756 12.0857143,1.4487395 C11.9411765,1.44537815 11.7697479,1.44537815 11.6117647,1.44537815 C10.3344538,1.45546218 7.35966387,1.92605042 7.35966387,6.01344538 L7.35966387,7.41176471 C9.3092437,7.40840336 14.6067227,7.40168067 17.1277311,7.40168067 C18.3344538,7.40168067 19.2722689,7.75798319 19.9142857,8.46386555 C20.8453782,9.48907563 20.7445378,10.8504202 20.7411765,10.9142857 L20.7411765,10.9142857 Z M11.8403361,17.1159664 C13.4672269,17.0857143 13.4672269,15.8252101 13.4672269,15.3512605 C13.4672269,14.9210084 13.4672269,13.610084 11.8168067,13.5697479 C11.7529412,13.5697479 11.6823529,13.5663866 11.6151261,13.5663866 L11.5647059,13.5663866 C9.96806723,13.5831933 9.96806723,14.8537815 9.96806723,15.3310924 C9.96806723,15.8117647 9.96806723,17.0957983 11.594958,17.1159664 L11.8403361,17.1159664 L11.8403361,17.1159664 Z M11.8504202,12.1243697 C12.4722689,12.1411765 14.8957983,12.389916 14.8957983,15.3512605 C14.8957983,18.3226891 12.4689076,18.5512605 11.8605042,18.5647059 L11.5680672,18.5647059 C10.9294118,18.5546218 8.53277311,18.3226891 8.53277311,15.3310924 C8.53277311,12.3495798 10.9058824,12.1243697 11.5445378,12.1210084 L11.6084034,12.1210084 C11.692437,12.1210084 11.7764706,12.1210084 11.8504202,12.1243697 L11.8504202,12.1243697 Z" id="Candado-abierto_2Regular"></path>
        </g>
    </g>
</svg>

<svg width="24" height="24" viewBox="0 0 24 24" xmlns="http://www.w3.org/2000/svg"><path d="M19.316 10.854c.003-.064.05-.867-.457-1.415-.36-.39-.941-.585-1.725-.585-3.042 0-10.117.01-10.484.01h-.033c-.017 0-.037 0-.054-.003-.003 0-.04-.004-.097-.004-.263 0-.995.044-1.486.504-.343.323-.518.824-.518 1.486v9.341c-.003.054-.04.864.474 1.415.356.384.925.579 1.69.579l10.512-.007c.057 0 1.055.057 1.667-.528.346-.333.514-.817.514-1.479-.006-3.072-.003-9.314-.003-9.314zm1.425.06c.004 0 0 6.195.004 9.25 0 1.076-.327 1.93-.975 2.542-1.073 1.015-2.622.914-2.686.91l-10.46.008c-1.184 0-2.108-.353-2.747-1.05-.934-1.018-.847-2.386-.843-2.443l-.004-9.287c0-1.086.333-1.947.985-2.555.609-.568 1.368-.773 1.92-.844V6.017C5.934 1.62 8.861.027 11.601 0c.174 0 .36.003.52.003C14.329.057 16.94 1.2 17.646 4.25c.091.39-.148.78-.53.87a.719.719 0 01-.861-.537c-.656-2.83-3.355-3.113-4.168-3.133-.145-.004-.316-.004-.474-.004-1.278.01-4.252.481-4.252 4.568v1.399c1.95-.004 7.247-.01 9.768-.01 1.206 0 2.144.356 2.786 1.062.931 1.025.83 2.386.827 2.45zm-8.9 6.202c1.626-.03 1.626-1.29 1.626-1.765 0-.43 0-1.74-1.65-1.781-.064 0-.135-.004-.202-.004h-.05c-1.597.017-1.597 1.288-1.597 1.765 0 .48 0 1.765 1.627 1.785h.245zm.01-4.992c.621.017 3.045.266 3.045 3.227 0 2.972-2.427 3.2-3.035 3.214h-.293c-.639-.01-3.035-.242-3.035-3.234 0-2.981 2.373-3.207 3.012-3.21h.063c.084 0 .168 0 .242.003z" fill="#5CB615" fill-rule="nonzero"/></svg>
